lib/brands/logos/hashnode.svg

<svg xmlns="http://www.w3.org/2000/svg" fill="none" aria-hidden="true" viewBox="0 0 264 52"><g id="Hashnode"><g id="Group"><path id="Vector" fill="#2962FF" fill-rule="evenodd" d="M10.7838 18.2067C6.95877 22.0317 6.95877 28.2327 10.7838 32.0574L21.8639 43.1378C25.689 46.9625 31.8899 46.9625 35.7146 43.1378L46.795 32.0574C50.6197 28.2323 50.6197 22.0314 46.795 18.2067L35.7146 7.1266C31.8895 3.3019 25.6886 3.3019 21.8639 7.1266L10.7838 18.2067ZM33.6368 29.9799C36.3143 27.3024 36.3143 22.9616 33.6368 20.2845C30.9596 17.6069 26.6189 17.6069 23.9417 20.2845C21.2642 22.962 21.2642 27.3024 23.9417 29.9799C26.6192 32.6571 30.9596 32.6571 33.6372 29.9799H33.6368Z" clip-rule="evenodd"/><path id="Vector_2" fill="#333333" d="M66.1703 32.5351C66.1858 29.4502 68.0713 27.6427 70.7824 27.6427C73.478 27.6427 75.0672 29.3723 75.0516 32.3172V46.3714H81.6892V31.1329C81.7047 25.5237 78.4015 22.127 73.4155 22.127C69.7853 22.127 67.3546 23.8411 66.2637 26.6611H65.9834V14.4614H59.5327V46.3714H66.1703V32.5351V32.5351ZM91.9823 46.8232C95.519 46.8232 97.8093 45.2805 98.9782 43.0526H99.1651V46.3714H105.46V30.2293C105.46 24.5267 100.63 22.127 95.301 22.127C89.567 22.127 85.7965 24.8695 84.877 29.2322L91.0162 29.7306C91.468 28.1414 92.8858 26.9729 95.2696 26.9729C97.529 26.9729 98.8223 28.1103 98.8223 30.0734V30.1672C98.8223 31.7095 97.1861 31.912 93.0262 32.3172C88.2893 32.7535 84.0359 34.3427 84.0359 39.6869C84.0359 44.4235 87.4167 46.8232 91.9823 46.8232V46.8232ZM93.8829 42.2421C91.8419 42.2421 90.3772 41.292 90.3772 39.469C90.3772 37.599 91.9198 36.6796 94.2571 36.3526C95.7059 36.1502 98.0742 35.8074 98.8688 35.2773V37.8173C98.8688 40.3256 96.7968 42.2421 93.8829 42.2421ZM128.767 29.2633C128.175 24.8536 124.622 22.127 118.577 22.127C112.454 22.127 108.418 24.963 108.434 29.5751C108.418 33.1583 110.677 35.4801 115.352 36.4151L119.496 37.2407C121.584 37.6615 122.534 38.425 122.565 39.6245C122.534 41.0427 120.992 42.0552 118.67 42.0552C116.302 42.0552 114.728 41.0427 114.323 39.0948L107.795 39.4376C108.418 44.0186 112.313 46.8387 118.655 46.8387C124.856 46.8387 129.296 43.6758 129.312 38.9548C129.296 35.4956 127.038 33.4232 122.394 32.4731L118.063 31.6005C115.834 31.1173 115.009 30.3538 115.024 29.2008C115.009 27.7675 116.629 26.8326 118.686 26.8326C120.992 26.8326 122.363 28.0948 122.69 29.6371L128.767 29.2633V29.2633ZM138.375 32.5351C138.39 29.4502 140.275 27.6427 142.986 27.6427C145.682 27.6427 147.271 29.3723 147.256 32.3172V46.3714H153.893V31.1329C153.909 25.5237 150.605 22.127 145.619 22.127C141.989 22.127 139.558 23.8411 138.468 26.6611H138.187V14.4614H131.737V46.3714H138.375V32.5351ZM163.999 32.5351C164.015 29.4502 165.853 27.6427 168.533 27.6427C171.198 27.6427 172.803 29.3878 172.787 32.3172V46.3714H179.424V31.1329C179.424 25.5551 176.152 22.127 171.167 22.127C167.614 22.127 165.043 23.8721 163.968 26.6611H163.687V22.4388H157.362V46.3714H163.999V32.5351V32.5351ZM193.714 46.8387C200.975 46.8387 205.493 41.8683 205.493 34.4986C205.493 27.0819 200.975 22.127 193.714 22.127C186.453 22.127 181.935 27.0819 181.935 34.4986C181.935 41.8683 186.453 46.8387 193.714 46.8387ZM193.745 41.6969C190.395 41.6969 188.681 38.6275 188.681 34.4516C188.681 30.2758 190.395 27.1912 193.745 27.1912C197.033 27.1912 198.747 30.2762 198.747 34.4516C198.747 38.6275 197.033 41.6969 193.745 41.6969ZM216.873 46.7608C220.737 46.7608 222.747 44.5329 223.667 42.5384H223.947V46.3714H230.491V14.461H223.869V26.4587H223.667C222.778 24.5112 220.862 22.127 216.858 22.127C211.607 22.127 207.166 26.2094 207.166 34.4361C207.166 42.4449 211.42 46.7608 216.873 46.7608V46.7608ZM218.977 41.4789C215.72 41.4789 213.944 38.5806 213.944 34.4051C213.944 30.2603 215.689 27.4092 218.977 27.4092C222.202 27.4092 224.009 30.1358 224.009 34.4051C224.009 38.674 222.17 41.4789 218.977 41.4789V41.4789ZM245.1 46.8387C251.021 46.8387 255.009 43.9562 255.944 39.5155L249.805 39.1106C249.135 40.9333 247.422 41.8838 245.209 41.8838C241.89 41.8838 239.787 39.6869 239.787 36.1188V36.1033H256.085V34.2802C256.085 26.1469 251.161 22.127 244.835 22.127C237.792 22.127 233.227 27.1285 233.227 34.5141C233.227 42.1021 237.73 46.8387 245.1 46.8387V46.8387ZM239.787 31.9899C239.927 29.2633 241.999 27.0819 244.944 27.0819C247.827 27.0819 249.821 29.1388 249.837 31.9899H239.787Z"/></g></g></svg>

<svg xmlns="http://www.w3.org/2000/svg" fill="none" aria-hidden="true" viewBox="0 0 264 52"><path fill="#2962FF" fill-rule="evenodd" d="M10.784 18.207c-3.825 3.825-3.825 10.026 0 13.85l11.08 11.08c3.825 3.825 10.026 3.825 13.85 0l11.081-11.08c3.825-3.825 3.825-10.026 0-13.85l-11.08-11.08c-3.825-3.825-10.026-3.825-13.851 0l-11.08 11.08ZM33.637 29.98a6.855 6.855 0 1 0-9.695-9.696 6.855 6.855 0 0 0 9.695 9.696Z" clip-rule="evenodd"/><path fill="#333" d="M66.17 32.535c.016-3.085 1.901-4.892 4.612-4.892 2.696 0 4.285 1.73 4.27 4.674v14.054h6.637V31.133c.016-5.61-3.287-9.006-8.273-9.006-3.63 0-6.061 1.714-7.152 4.534h-.28v-12.2h-6.451v31.91h6.637V32.535Zm25.812 14.288c3.537 0 5.827-1.542 6.996-3.77h.187v3.318h6.295V30.23c0-5.702-4.83-8.102-10.159-8.102-5.734 0-9.505 2.742-10.424 7.105l6.14.499c.451-1.59 1.869-2.758 4.253-2.758 2.259 0 3.552 1.137 3.552 3.1v.094c0 1.542-1.636 1.745-5.796 2.15-4.737.437-8.99 2.026-8.99 7.37 0 4.736 3.38 7.136 7.946 7.136Zm1.9-4.58c-2.04 0-3.505-.951-3.505-2.774 0-1.87 1.543-2.79 3.88-3.116 1.449-.203 3.817-.546 4.612-1.076v2.54c0 2.509-2.072 4.425-4.986 4.425Zm34.885-12.98c-.592-4.41-4.145-7.136-10.19-7.136-6.123 0-10.159 2.836-10.143 7.448-.016 3.583 2.243 5.905 6.918 6.84l4.144.826c2.088.42 3.038 1.184 3.07 2.383-.032 1.419-1.574 2.431-3.896 2.431-2.368 0-3.942-1.012-4.347-2.96l-6.528.343c.623 4.58 4.518 7.4 10.86 7.4 6.201 0 10.642-3.162 10.657-7.883-.015-3.46-2.274-5.532-6.918-6.482l-4.331-.872c-2.229-.484-3.054-1.247-3.039-2.4-.015-1.434 1.605-2.368 3.662-2.368 2.306 0 3.677 1.262 4.004 2.804l6.077-.374Zm9.608 3.272c.015-3.085 1.9-4.892 4.611-4.892 2.696 0 4.285 1.73 4.27 4.674v14.054h6.637V31.133c.016-5.61-3.288-9.006-8.274-9.006-3.63 0-6.06 1.714-7.151 4.534h-.281v-12.2h-6.45v31.91h6.638V32.535Zm25.624 0c.016-3.085 1.854-4.892 4.534-4.892 2.665 0 4.27 1.745 4.254 4.674v14.054h6.637V31.133c0-5.578-3.272-9.006-8.257-9.006-3.553 0-6.124 1.745-7.199 4.534h-.281V22.44h-6.325v23.93h6.637V32.535Zm29.715 14.304c7.261 0 11.779-4.97 11.779-12.34 0-7.417-4.518-12.372-11.779-12.372s-11.779 4.955-11.779 12.372c0 7.37 4.518 12.34 11.779 12.34Zm.031-5.142c-3.35 0-5.064-3.07-5.064-7.245 0-4.176 1.714-7.26 5.064-7.26 3.288 0 5.002 3.084 5.002 7.26 0 4.175-1.714 7.245-5.002 7.245Zm23.128 5.064c3.864 0 5.874-2.228 6.794-4.223h.28v3.833h6.544v-31.91h-6.622v11.998h-.202c-.889-1.948-2.805-4.332-6.809-4.332-5.251 0-9.692 4.082-9.692 12.31 0 8.008 4.254 12.324 9.707 12.324Zm2.104-5.282c-3.257 0-5.033-2.898-5.033-7.074 0-4.145 1.745-6.996 5.033-6.996 3.225 0 5.032 2.727 5.032 6.996s-1.838 7.074-5.032 7.074Zm26.123 5.36c5.921 0 9.909-2.883 10.844-7.323l-6.138-.405c-.671 1.822-2.384 2.773-4.597 2.773-3.319 0-5.422-2.197-5.422-5.765v-.016h16.298V34.28c0-8.133-4.924-12.153-11.25-12.153-7.043 0-11.608 5.002-11.608 12.387 0 7.588 4.503 12.325 11.873 12.325Zm-5.313-14.85c.14-2.726 2.213-4.907 5.157-4.907 2.883 0 4.877 2.057 4.893 4.908h-10.05Z"/></svg>
